X:16246
T:Swiss Boy,The. CJF.054
M:2/4
L:1/16
Q:90
C:"C.J.F."
S: C.J.Fox MS, 1829/33, Beverley,E.Yorks.
R:Misc.
O:England
A:East Yorkshire
B:Kidson Coll.Mitchell Lib.M1805
N:The letters "C J F" appear after the title
Z:P J Headford 2000
K:D
F>G|A2 F>G A2 F>G|A2 fe d2 A>A|A2 gf e2 fe|\
d6:||A2|G2 ed c2 A2|A2 fe d2A2|!
G2 ed c2 A2|A2 fe d2 F>G|AG F>G AG F>G|\
A2 (fe) (dF) A>A|A2gf e2 f>e|d6:|]
